X:430
T:Star Of Te Aroha
A:Wellington
C:Liz Merton and Tim Barrie
L:1/8
M:4/4
N:This tune should be swung
O:New Zealand
P:2
Q:130
R:Swung Polka
%%Copyright:Liz Merton and Tim Barrie
%%TUNEURL: http://www.leeds.ac.uk/music/Info/RRTuneBk/gettune/00000c87.html
%%ID:00000c87
K:D
|:"D"d2d2 A2A2 | F>EF (D4D) |\
"A" C>D E>D C>D E>F | G2^G (A4A) |\
"D"d2d2 A2A2 | F>E F (D4D) |
"A" C>D E>F G>A B>c | "D" d2d (d4d) :||: \
"A"c2c2 "D"dd3 | "A" ee3 "D" f4 |
"G" g>f e>c "D"d>A F>D | "A"G2^G (A4A)|\
"A"c2 c2 "D"dd3 | "A" ee3 "D" f3f | \
"G" g>b a>g "D" f>e d>B | "A" A2c "D"d4d:|
